www/assets/icons/lte_mobiledata.svg

<svg width="24" height="24" viewBox="0 0 24 24" xmlns="http://www.w3.org/2000/svg" fill='currentColor'><path d="M5.5 14H8.5V16H3.5V8H5.5V14ZM8.5 10H10.5V16H12.5V10H14.5V8H8.5V10ZM20.5 10V8H15.5V16H20.5V14H17.5V13H20.5V11H17.5V10H20.5Z"/></svg>

<svg xmlns="http://www.w3.org/2000/svg" width="24" height="24" viewBox="0 0 24 24" fill='currentColor'><path d="M5.5 14h3v2h-5V8h2zm3-4h2v6h2v-6h2V8h-6zm12 0V8h-5v8h5v-2h-3v-1h3v-2h-3v-1z"/></svg>
